X:299
T:Reel 299
M:4/4
K:Dmaj
L:1/8
F>E (3FED E>G (3ECC |D>F (3FEF GFEG||F>D (3DDD FDDE|CB,CD EGFE:||2FAD (3FDD dFED|CEAG FDD2|A>d (3dcd e>d (3dcd |A>d (3dcd edcd|e>c (3ccc eccB|A>c (3ccc G>E (3EFE |Addd cdedcd|Adc (3ded cded|fded fded|cAGE EDD2|
